X:1
T:The School Of Velocity
T:Op. 299
T:Carl Czerny
%%score { ( 1 4 ) | ( 2 3 ) }
L:1/8
M:4/4
K:C
V:1 treble nm="Piano"
V:4 treble 
V:2 bass 
V:3 bass 
V:1
"C""^9" !1!C/!2!D/!3!E/!4!F/ !5!G/!4!F/!3!E/!2!D/ C/D/E/F/ G/F/E/D/ | %1
"C" C/D/E/F/ G/F/E/D/ C/D/!3!E/!1!F/ G/A/B/c/ | %2
"Dm/F" !1!D/E/F/G/ !5!A/G/F/E/ !1!D/!2!E/!3!F/!1!G/ !2!A/!3!B/!4!c/!5!d/ | %3
"G7" !3!B/!2!A/!3!B/!4!c/ !5!d/c/B/A/ G/A/!3!B/!1!c/ d/e/f/g/ | %4
"C" !3!e/!2!d/!3!e/!4!f/ !5!g/f/e/d/ c/d/e/f/ g/f/e/d/ | c/d/e/f/ g/f/e/d/ c/d/e/!1!f/ g/a/b/c'/ | %6
"Dm/F" !1!d/e/f/g/ a/g/f/e/ d/e/f/!1!g/ a/b/c'/d'/ | %7
"G7" !3!b/!2!a/!3!b/!4!c'/ !5!d'/c'/b/a/ g/a/b/!1!c'/ d'/e'/f'/g'/ |"C" [c'e'] z z2 z4 | %9
 [c'e'] z z2 z2 [c'e'] z |"D7" [c'^f'] z z2 z2 !2!!3![^fa] z | [^fd'] z z2 z2 !2!!5![fc'] z | %12
"G" !4![gb] z z2 !3!b/!1!g/!2!a/!3!b/ !1!c'/!2!d'/!3!e'/!4!^f'/ | %13
!8va(! !1!g'/a'/b'/c''/ d''/c''/b'/a'/ !1!g'/!4!^f'/!3!e'/!2!d'/ !1!c'/!3!b/!2!a/!1!g/!8va)! | %14
"D7/C" !2!^f/!1!g/!2!a/!3!b/ !4!c'/!3!b/!2!a/!1!g/ !4!f/!3!e/!2!d/!1!c/ !3!B/!2!A/!1!G/!3!^F/ | %15
"D7/F#" !5!A/!1!D/E/^F/ !1!G/A/B/c/ d/e/^f/!1!g/ a/b/c'/!5!d'/ | %16
"G" !3!b/g/a/b/ !1!c'/d'/e'/^f'/!8va(! !5!g'/!1!d'/e'/f'/ !4!g'/d'/e'/f'/ | %17
 !1!g'/a'/b'/c''/ d''/c''/b'/a'/ g'/!4!^f'/e'/d'/ c'/!3!b/a/g/!8va)! | %18
"D7/A" !2!^f/!1!g/a/b/ c'/b/a/g/ f/e/d/c/ B/A/G/!3!^F/ | %19
"D7/F#" !5!A/D/E/^F/ !1!G/A/B/c/ d/e/^f/!1!g/ a/b/c'/!5!d'/ | %20
"G" !3!b z z2 z/ !1!B/c/!3!d/ !1!e/^f/g/a/ |"G" b z z2 !5!b/a/g/^f/ !1!e/!3!d/c/B/ | %22
"Am" !2!c z z2 z/ !1!c/d/e/ !4!^f/!1!g/a/b/ |"Am" !4!c' z z2 !4!c'/b/a/g/ !4!^f/e/d/c/ | %24
"G/B" d z z2 z/ !1!d/e/!3!^f/ !1!g/a/b/c'/ |"G/B" !5!d' z z2 !5!d'/c'/b/a/ g/^f/e/d/ | %26
"C" !1!e/^f/g/!4!a/!8va(! !1!b/c'/d'/e'/"D7/C" !5!^f'/e'/d'/c'/ b/!4!a/g/!2!f/ | %27
"G/B" !1!g/a/b/!4!c'/ !1!d'/e'/^f'/!4!g'/"D7/A" !5!a'/g'/f'/e'/ !1!d'/!4!c'/b/a/ | %28
"G" !1!b/b'/a'/g'/ ^f'/e'/"Gdim"!3!d'/^c'/"G" d'/b'/a'/g'/ f'/e'/"Gdim"d'/c'/ | %29
"G" b/b'/a'/g'/ ^f'/e'/d'/^c'/"D7" e'/d'/=c'/b/ a/b/c'/d'/ | %30
"G/D" !1!b/b'/a'/g'/ ^f'/e'/!3!d'/!2!^c'/ !1!d'/b'/a'/g'/ f'/e'/d'/c'/ | %31
 d'/b'/a'/g'/ ^f'/e'/d'/!2!^c'/"D7" !4!e'/d'/=c'/!1!b/ !2!a/b/c'/d'/!8va)! | %32
"G" b/!5!d'/c'/b/"D#dim" !2!a/!4!c'/b/a/"Em" !1!g/!5!b/a/g/"G9/D" !2!=f/!4!a/g/f/ | %33
"C" !1!e/!5!g/f/e/"G#dim" !2!d/!4!f/e/d/"Am" !1!c/!5!e/d/c/"G/D" !2!B/!4!d/c/B/ | %34
"Am/C" !1!A/!5!c/B/A/"Ddim" !2!^G/!4!B/A/G/"Am/C" !3!A/!5!c/B/A/"Ddim" !2!G/!4!B/A/G/ | %35
"Am" !1!A/B/!3!c/!1!d/ e/^f/^g/!5!a/"A7/C#" !4!=g/!2!e/=f/g/ a/g/f/e/ | %36
"G/D" d/e/^f/!1!g/ a/b/c'/!5!d'/"G/B" !1!g/a/b/!1!c'/"G"!8va(! d'/e'/^f'/!5!g'/ | %37
"G/D" !1!d'/e'/^f'/!1!g'/ a'/b'/c''/d''/!8va)!"D7" z2 !5![Acd^f]2 |"G" !2!!3!!5![Bdg]2 z2 z4 | %39
"G" z2 !3![GB]2 [GB]2 [GB]2 |"D7" (!5!d4 !4!c4) |"D7" z2 !2!!4![c^f]2 [cf]2 [cf]2 |"G" (g4 !2!d4) | %43
"G" z2 !1!!3![gb]2 [gb]2 [gb]2 |"D7" (!5!d'4 c'4) |"D7" z2!8va(! !2!!4![c'^f']2 [c'f']2 [c'f']2 | %46
"G" [bg'] z z2"D7/F#" !1!d'/e'/!3!^f'/!1!g'/ a'/b'/c''/d''/ | %47
"G" !3!b' z !5!g' z"D7/F#" d'/e'/^f'/!1!g'/ a'/b'/c''/d''/ | %48
"G" !3!b' z !1!g' z"C" !2!=f'/!3!g'/!4!a'/!1!b'/ c''/d''/e''/f''/ | %49
"G/B" e''/d''/c''/!1!b'/ !4!a'/g'/f'/!1!e'/"Am" !2!d'/!3!e'/!4!f'/!1!g'/ a'/b'/c''/d''/ | %50
"G" c''/b'/a'/g'/ !4!f'/e'/d'/!1!c'/"F" !2!b/!3!c'/!4!d'/!1!e'/ f'/g'/a'/b'/ | %51
"C" a'/g'/f'/e'/ !4!d'/c'/b/a/"G/B" !2!g/!3!a/!4!b/!1!c'/ d'/e'/f'/g'/ | %52
"F/A" f'/e'/d'/c'/ !4!b/a/g/f/"Em/G" !2!e/!3!f/!4!g/!1!a/ b/c'/d'/e'/ | %53
"Dm/F" d'/c'/b/a/ !4!g/f/e/d/"C/E" !2!c/!3!d/!4!e/!1!f/ g/a/b/c'/ | %54
"G7" !1!b/!5!g'/f'/e'/ d'/c'/!3!b/a/!8va)! g/!4!f/e/d/ c/!3!B/A/G/ | %55
 !4!F/E/D/C/ !3!B,/A,/G,/A,/ B,/!1!C/D/E/ F/G/A/B/ ||"C" c z z2 z2 !1!!2![GB] z | %57
"C" [Ec] z (c4 !4!_B2 |"F" [FA]) z z2 z2 !1!!2![Ac] z |"F" !5![Af] z (!4!f4 a2) | %60
"G7" !1!!2![G=B] z z2 z2 !1!!2![Bd] z |"G7" !5![Bg] z (!5!g4 f2) | %62
"C" !1!e/f/g/!1!a/ b/c'/d'/e'/"G" d'/e'/d'/c'/ b/a/!3!g/f/ | %63
"C" e/f/g/!1!a/ b/c'/d'/e'/"G" d'/e'/d'/c'/ b/a/!3!g/f/ | %64
"C" e z"G/B" !2!!5![eg] z"Am" !1!c z"Em/G" !2!!5![Be] z | %65
"Dm/F" !1!A z"C/E" !2!!5![Gc] z"Dm" !1!F z"A7/C#" !2!!5![EA] z | %66
"Dm" !3!F/!1!D/E/F/ !1!G/A/B/!4!^c/"Dm/F" !1!d/e/f/g/ !5!a/!2!e/!3!f/!1!d/ | %67
"C/G" !5!g/!2!^d/!3!e/!1!=c/ g/d/e/c/"G7" !5!f/!2!^c/!3!=d/!1!B/ f/c/d/B/ | %68
"C" =c z z2 z2 !3!!5![EG] z |"C" [CE] z z2 z2 [EG] z |"C" [CE] z z2 [cegc'] z z2 |] %71
V:2
 z8 | !4![E,G,] z z2 z2 [E,G,] z | [F,A,] z z2 z2 !4![F,A,] z | [G,B,] z z2 z2 !4![G,B,] z | %4
 [CE] z z2 z4 |[K:treble] !4![EG] z z2 z2 [EG] z | [FA] z z2 z2 !4![FA] z | %7
 [GB] z z2 z2 !2!!1![GB] z | !5!C/!4!D/!3!E/!2!F/ !1!G/!2!F/!3!E/!4!D/ !5!C/D/E/F/ G/F/E/D/ | %9
 C/D/E/F/ G/F/E/D/ !5!C/!4!D/!3!E/!2!F/ !1!G/!3!A/!2!B/!1!c/ | %10
 !5!D/!4!E/!3!^F/!2!G/ !1!A/!2!G/!3!F/!4!E/ D/E/F/G/ A/G/F/E/ | %11
 D/E/^F/G/ A/G/F/E/ !5!D/!4!E/!3!F/!2!G/ !1!A/!3!B/!2!c/!1!d/ | %12
 !5!G/!4!A/!3!B/!2!c/ !1!d/!2!c/!3!B/!4!A/ !5!G z z2 | [B,DG] z z2 z2 [B,DG] z | %14
 [A,CD^F] z z2 z2[K:bass] !3![A,CD] z | !4![^F,C] z z2 z2 [F,A,D] z | [G,B,D] z z2 z4 | %17
 [B,,D,G,]2 z2 z2 !4![B,,D,G,]2 | [A,,C,D,^F,]2 z2 z2 [A,,C,D,F,]2 | %19
 [^F,,A,,C,D,]2 z2 z2 [F,,A,,C,D,]2 | !5!G,,/A,,/B,,/C,/ D,/!3!E,/^F,/G,/ G,, z z2 | %21
 !5!G,/A,/B,/C/ D/!3!E/^F/G/ G, z z2 | !5!A,,/B,,/C,/D,/ E,/!3!^F,/G,/A,/ A,, z z2 | %23
[K:treble] !5!A,/B,/C/D/ E/!3!^F/G/A/ A, z z2 | %24
[K:bass] !4!B,,/C,/D,/!1!E,/ !4!^F,/G,/A,/!1!B,/ B,, z z2 | %25
[K:treble] !4!B,/C/D/!1!E/ !4!^F/G/A/!1!B/ B, z z2 | !4![CG]4 [CDA]4 | [B,DG]4 [A,CD^F]4 | %28
 [G,B,DG] z z (^A [GB]) z z (A | [GB]) z z2 [D^Fc]4 |[K:bass] [G,B,]4 [G,B,]4 | [G,B,]4 [^F,C]4 | %32
 [G,B,] z[K:treble] !2!^d z !1!e z !2!B z | c z ^G z A z [DG] z | [CE] z [D=F] z [CE] z [DF] z | %35
 [CE]4 [^CE=G=A]4 | [DGB] z[K:bass] [D,D] z [B,,B,] z [G,,G,] z | [D,,D,] z z2 [D,^F,A,C]4 | %38
 !5!G,,/A,,/B,,/C,/ D,/C,/B,,/A,,/ G,,/A,,/B,,/C,/ D,/C,/B,,/A,,/ | %39
 G,,/A,,/B,,/C,/ D,/C,/B,,/A,,/ G,,/A,,/B,,/C,/ D,/E,/^F,/G,/ | %40
 D,/E,/^F,/G,/ A,/G,/F,/E,/ D,/E,/F,/G,/ A,/G,/F,/E,/ | %41
 D,/E,/^F,/G,/ A,/G,/F,/E,/ D,/E,/F,/G,/ A,/B,/C/D/ | %42
 G,/A,/B,/C/ D/C/B,/A,/ G,/A,/B,/C/ D/C/B,/A,/ | %43
 G,/A,/B,/C/ D/C/B,/A,/ G,/A,/B,/C/[K:treble] D/E/^F/G/ | D/E/^F/G/ A/G/F/E/ D/E/F/G/ A/G/F/E/ | %45
 D/E/^F/G/ A/G/F/E/ D/E/F/G/ A/B/c/d/ | G/A/B/c/ d/e/^f/g/ f z d z | %47
 G/A/B/c/ d/e/^f/g/ f z !1!d z | x4 !3!a2 !1!c'2 | g2 !2!b2 =f2 !1!a2 | e2 !2!g2 !5!d2 !1!f2 | %51
 !4!c2 !2!e2 !5!B2 !1!d2 | !4!A2 !2!c2 !5!G2 !1!B2 | !4!F2 !2!A2 !5!E2 !1!G2 | [G,B,DF]8 | z8 || %56
[K:bass] C,/D,/E,/F,/ G,/F,/E,/D,/ C,/D,/E,/F,/ G,/F,/E,/D,/ | %57
 C,/D,/E,/F,/ G,/F,/E,/D,/ C,/D,/E,/F,/ G,/!3!A,/_B,/C/ | %58
 !5!F,/G,/A,/_B,/ C/B,/A,/G,/ F,/G,/A,/B,/ C/B,/A,/G,/ | %59
 F,/G,/A,/_B,/ C/B,/A,/G,/ F,/G,/A,/B,/ C/D/E/F/ | %60
 !5!G,/A,/=B,/C/ D/C/B,/A,/ G,/A,/B,/C/ D/C/B,/A,/ | %61
 G,/A,/B,/C/ D/C/B,/A,/ G,/A,/B,/C/[K:treble] D/E/F/G/ | %62
 !5!C/D/E/F/ G/!3!A/B/c/ !4!!2![GB] z [B,G] z | C/D/E/F/ G/A/B/c/ [GB] z [B,G] z | %64
[K:bass] !3!C/E/D/C/ !4!B,/!1!D/C/B,/ !4!A,/!1!C/B,/A,/ !4!G,/!1!B,/A,/G,/ | %65
 !4!F,/!1!A,/G,/F,/ !4!E,/!1!G,/F,/E,/ !4!D,/!1!F,/E,/D,/ !4!^C,/!1!E,/!2!D,/C,/ | %66
 D, z z2 [F,,A,,D,] z z2 | [G,,=C,E,] z z2 [G,,D,F,] z z2 | %68
 C,/D,/E,/F,/ G,/F,/E,/D,/ C,/D,/E,/F,/ G,/F,/E,/D,/ | %69
 C,/D,/E,/F,/ G,/F,/E,/D,/ C,/D,/E,/F,/ G,/F,/E,/D,/ | C, z z2 [C,,E,,G,,C,] z z2 |] %71
V:3
 x8 | x8 | x8 | x8 | x8 |[K:treble] x8 | x8 | x8 | x8 | x8 | x8 | x8 | x8 | x8 | x5[K:bass] x3 | %15
 x8 | x8 | x8 | x8 | x8 | x8 | x8 | x8 |[K:treble] x8 |[K:bass] x8 |[K:treble] x8 | x8 | x8 | x8 | %29
 x8 |[K:bass] G,2 D,2 G,2 D,2 | G,2 D,2 ^F,2 D,2 | x2[K:treble] x6 | x8 | x8 | x8 | x2[K:bass] x6 | %37
 x8 | x8 | x8 | x8 | x8 | x8 | x6[K:treble] x2 | x8 | x8 | x8 | x8 | G/A/B/c/ d/!3!e/^f/g/ a4 | %49
 !4!g4 !5!f4 | !4!e4 d4 | c4 B4 | A4 G4 | F4 E4 | x8 | x8 ||[K:bass] x8 | x8 | x8 | x8 | x8 | %61
 x6[K:treble] x2 | x8 | x8 |[K:bass] x8 | x8 | x8 | x8 | x8 | x8 | x8 |] %71
V:4
 x8 | x8 | x8 | x8 | x8 | x8 | x8 | x8 | x8 | x8 | x8 | x8 | x8 |!8va(! x8!8va)! | x8 | x8 | %16
 x4!8va(! x4 | x8!8va)! | x8 | x8 | x8 | x8 | x8 | x8 | x8 | x8 | x2!8va(! x6 | x8 | x8 | x8 | x8 | %31
 x8!8va)! | x8 | x8 | x8 | x8 | x6!8va(! x2 | x4!8va)! x4 | x8 | x8 | !2!^F8 | x8 | B8 | x8 | %44
 !2!^f8 | x2!8va(! x6 | x8 | x8 | x8 | x8 | x8 | x8 | x8 | x8 | x4!8va)! x4 | x8 || x8 | x2 E6 | %58
 x8 | x2 A6 | x8 | x2 B6 | x8 | x8 | x8 | x8 | x8 | x8 | x8 | x8 | x8 |] %71

